X:1
T:Jerusalem (Stainer), 76.76 D
T:Jerusalem (Stainer), 76.76 D
T:John Stainer (1840-1901)
T:Public Domain Courtesy of the Cyber Hymnal™
C:John Stainer (1840-1901)
Z:Public Domain
Z:Courtesy of the Cyber Hymnal™
%%score ( 1 2 ) ( 3 4 )
L:1/8
Q:1/4=115
M:none
K:C
V:1 treble 
V:2 treble 
V:3 bass 
V:4 bass 
V:1
 G2 | [Gc]2 [GB]2 [EA]2 [GB]2 | [Gc]4 G2 [FA]2 | G2 [CE]2 [CG]2 [B,F]2 | [CE]6 [D^F]2 | %5
 [DG]2 [DG]2 [EA]2 [Cc]2 | [Cc]4 [DB]2 [^FA]2 | d3 z c [GB]2 [^FA]2 | G6 [GB]2 | %9
 [GB]2 E2 E2 [^D^F]2 | [EG]4 [EG]2 [^DA]2 | [EB]2 [Ee]2 [Ed]2 [Ec]2 | [EB]6 [DB]2 | %13
 [Cc]2 [CG]2 [CA]2 [C_B]2 | ([CA]2 [EB]2) [Ec]2 [Gd]2 | [Ge]2 [Af]2 d3 z c | [Ec]6 |] %17
V:2
 G2 | x8 | x4 G2 x2 | G2 x6 | x8 | x8 | x8 | G2 A2 x5 | G6 x2 | x2 E2 E2 x2 | x8 | x8 | x8 | x8 | %14
 x8 | x4 G2 F2 x | x6 |] %17
V:3
 G,2 | [CE]2 [G,D]2 [A,C]2 [G,D]2 | [CE]4 [E,C]2 [F,C]2 | [E,C]2 [A,C]2 [D,A,]2 G,2 | %4
 [C,G,]6 [C,A,]2 | [B,,G,]2 [B,,G,]2 [C,G,]2 [E,G,]2 | [E,G,]4 [D,G,]2 [CD]2 | %7
 [B,D]2 [CE]2 D2 [D,C]2 x | [G,B,]6 [E,E]2 | [E,E]2 [E,G,]2 [G,B,]2 B,2 | %10
 [E,B,]4 [E,B,]2 [^F,A,]2 | G,2 [G,B,]2 A,2 A,2 | [E,G,]6 [F,G,]2 | %13
 [E,G,]2 [E,_B,]2 [E,A,]2 [E,G,]2 | ([F,A,]2 [E,^G,]2) A,2 [=G,B,]2 | C2 [F,C]2 [G,C]2 [G,,B,]2 x | %16
 [C,C]6 |] %17
V:4
 G,2 | x8 | x8 | x6 G,2 | x8 | x8 | x8 | x4 D2 x3 | x8 | x6 B,2 | x8 | G,2 A,2 A,2 x2 | x8 | x8 | %14
 x4 A,2 x2 | C2 x7 | x6 |] %17

